!! 00000] TT[00
!! NN
!!!OTL: Renmin gongshe shizai hao
!!!ARE: Asia, China, Shanxi, Zizhou
!! Ethnic Group: Han
!! I, 22, 2)
!!!SCT: C0002
!!!YEM: Copyright 1995, estate of Helmut Schaffrath.
**kern
*ICvox
*Ivox
*M2/4
*k[]
*C:
{4dd
8a
8cc
=1
4dd
4dd
=2
8.a
16cc
8dd
8gg
=3
8cc
8a
4g}
=4
{8.a
16cc
8dd
8gg
=5
8dd
4cc
8a
=6
8.cc
16a
8g
8e
=7
2d}
=8
{8g
8f#
4g
=9
8.g
16a
8cc
8dd
=10
4dd
8cc
8dd
=11
4g
4d}
=12
{8.a
16cc
8dd
8gg
=13
8dd
4cc
8a
=14
8.cc
16a
8g
8e
=15
2d}
=16
{2dd
=17
8.cc
16a
4g}
=18
{8.a
16cc
8dd
8gg
=19
8dd
4cc
8a
=20
8.cc
16a
8g
8e
=21
2d}
==
!!!AGN: Wuge, Shuichuan qu. Xin minge
!! neue Volkslied. Text eines volkstuemlichen Saengers, dessen Name
!!    am Ende erscheint. Er arbeitete frueher als Arbeiter-Vorsaenger.
!!    Es gibt ein mongolisches Lied mit gleichem Titel auf TB Nr. 20,
!!    Cut 18-19.
!!!ONB: ESAC (Essen Associative Code) Database: CHINA
!!!AMT: simple duple
!!!AIN: vox
!!!EED: Helmut Schaffrath
!!!EEV: 1.0
*-
